!!!!SEGMENT: pl-kk--kk-i-111--015_anonim--deo-gratias-de-sanctis-mulieribus.krn
!!!cenid: 18xx:2588
!!!COM: Anonim
!!!COM-rismID: pe30004985
!!!CDT:
!!!CNT:
!!!OTL: Deo gratias
!!!PDT: 1824
!!!AGN: Sacred
!!!SMS-siglum: PL-Kk
!!!SMS-shelfmark: Kk.I.111
!!!SMS-shelfwork: 015 W
!!!SMS-variant:
!!!SMS-altvar:
!!!NIFC-rismSourceID: 1001156407
!!!NIFC-rismChildID: 1001157703
!!!NIFC-islandoraID: pl-kk:3371
!!!URL-pdf-islandora: https://repozytorium.nifc.pl/islandora/object/pl-kk%3A3371/datastream/PDF/view
!!!URL-scan: https://polish.musicsources.pl/pl/lokalizacje/galeria/rekopisy/5747 @EN{Scan on Polish Music Sources Website} @PL{Skany w portalu Dziedzictwo Muzyki Polskiej w otwartym dostępie}
!!!ONB-nifc: UWAGA: A, T1, T2. Podział na poszególne Deo gratias. A: skan 0004 (m.in)
!!!AIN: 1 alto 2 tenor
!!!key:
**kern	**text	**kern	**text	**kern	**text
*part3	*part3	*part2	*part2	*part1	*part1
*staff3	*staff3	*staff2	*staff2	*staff1	*staff1
*Itenor	*	*Itenor	*	*Ialto	*
*I"Tenore Vagante.	*	*I"Tenore Chorale.	*	*I"Alto.	*
*I'T 2	*	*I'T 1	*	*I'A	*
*clefC4	*	*clefC4	*	*clefC3	*
*k[b-]	*	*k[b-]	*	*k[b-]	*
*F:	*	*F:	*	*F:	*
*M2/1	*	*M2/1	*	*M2/1	*
*all\right	*	*all\right	*	*all\right	*
*2\right	*	*2\right	*	*2\right	*
*met(c|)	*	*met(c|)	*	*met(c|)	*
=1	=1	=1	=1	=1	=1
!	!	!LO:TX:t=P:problem=kreska pseudotaktowa	!	!	!
!	!	!	!	!LO:TX:t=P:problem=kreska pseudotaktowa	!
2A\	De-	1F	De-	1.f	De-
!LO:TX:t=P:problem=kreska pseudotaktowa	!	!	!	!	!
2c\	.	.	.	.	.
!	!	!LO:TX:t=P:problem=kreska pseudotaktowa	!	!	!
2B-\	o	1G	.	.	.
!LO:TX:t=P:problem=kreska pseudotaktowa	!	!	!	!LO:TX:t=P:problem=kreska pseudotaktowa	!
2G\	.	.	.	2e\	.
=2	=2	=2	=2	=2	=2
!	!	!LO:TX:t=P:problem=kreska pseudotaktowa	!	!	!
2F/	gra-	1A	.	2.f\	-o
!LO:TX:t=P:problem=kreska pseudotaktowa	!	!	!	!	!
2c\	.	.	.	.	.
!	!	!	!	!LO:TX:t=P:problem=kreska pseudotaktowa	!
.	.	.	.	4e\	.
!	!	!LO:TX:t=P:problem=kreska pseudotaktowa	!	!	!
2B-\	.	1F	.	2d\	gra-
!LO:TX:t=P:problem=kreska pseudotaktowa	!	!	!	!LO:TX:t=P:problem=kreska pseudotaktowa	!
2c\	.	.	.	2f\	.
=3	=3	=3	=3	=3	=3
!	!	!LO:TX:t=P:problem=kreska pseudotaktowa	!	!	!
2d\	.	1B-X	-o	2.g\	.
1c	.	.	.	.	.
!	!	!	!	!LO:TX:t=P:problem=kreska pseudotaktowa	!
.	.	.	.	4g\	-ti-
!	!	!LO:TX:t=P:problem=kreska pseudotaktowa	!	!	!
.	.	1A	.	2f\	-as
!LO:TX:t=P:problem=kreska pseudotaktowa	!	!	!	!	!
2A/	.	.	.	1f\	De-
=4	=4	=4	=4	=4-	=4
!	!	!LO:TX:t=P:problem=kreska pseudotaktowa	!	!	!
2.G/	.	1G	.	.	-o
!	!	!	!	!LO:TX:t=P:problem=kreska pseudotaktowa	!
.	.	.	.	2e\	.
!LO:TX:t=P:problem=kreska pseudotaktowa	!	!	!	!	!
4G/	-ti-	.	.	.	.
!	!	!LO:TX:t=P:problem=kreska pseudotaktowa	!	!LO:TX:t=P:problem=kreska pseudotaktowa	!
2F/	-as	1A	.	1f	.
!LO:TX:t=P:problem=kreska pseudotaktowa	!	!	!	!	!
2c\	De-	.	.	.	.
=5	=5	=5	=5	=5	=5
!LO:TX:t=P:problem=kreska pseudotaktowa	!	!LO:TX:t=P:problem=kreska pseudotaktowa	!	!	!
1B-X	o	1F	.	2d\	gra-
!	!	!	!	!LO:TX:t=P:problem=kreska pseudotaktowa	!
.	.	.	.	2f\	.
!	!	!LO:TX:t=P:problem=kreska pseudotaktowa	!	!	!
2c\	gra-	1En	.	2.g\	.
!LO:TX:t=P:problem=kreska pseudotaktowa	!	!	!	!	!
2G/	.	.	.	.	.
!	!	!	!	!LO:TX:t=P:problem=kreska pseudotaktowa	!
.	.	.	.	4g\	-ti-
=6	=6	=6	=6	=6	=6
!LO:TX:t=P:problem=kreska pseudotaktowa	!	!LO:TX:t=P:problem=kreska pseudotaktowa	!	!	!
1A	.	1F	.	2f\	-as
.	.	.	.	1f	De-
!	!	!LO:TX:t=P:problem=kreska pseudotaktowa	!	!	!
2.G/	.	1G	.	.	.
!	!	!	!	!LO:TX:t=P:problem=kreska pseudotaktowa	!
.	.	.	.	2e\	-o
!LO:TX:t=P:problem=kreska pseudotaktowa	!	!	!	!	!
4G/	-ti-	.	.	.	.
!LO:LB:g=original	!	!	!	!	!
=7	=7	=7	=7	=7	=7
!	!	!LO:TX:t=P:problem=kreska pseudotaktowa	!	!	!
2A\	-as	1F	.	2f\	gra-
1B-	De-	.	.	1d	.
!	!	!LO:TX:t=P:problem=kreska pseudotaktowa	!	!	!
.	.	1E	.	.	.
!LO:TX:t=P:problem=kreska pseudotaktowa	!	!	!	!LO:TX:t=P:problem=kreska pseudotaktowa	!
2c\	-o	.	.	2c\	.
=8	=8	=8	=8	=8	=8
!	!	!LO:TX:t=P:problem=kreska pseudotaktowa	!	!	!
2A\	gra-	1D	.	2c\	.
!LO:SIC:v:s=2G	!	!	!	!	!
!LO:TX:t=P:problem=kreska pseudotaktowa	!	!	!	!LO:TX:t=P:problem=kreska pseudotaktowa	!
2B-\	.	.	.	2Bn/	.
!	!	!LO:TX:t=P:problem=kreska pseudotaktowa	!	!	!
2.G/	.	1E	.	2.c\	.
!LO:TX:t=P:problem=kreska pseudotaktowa	!	!	!	!LO:TX:t=P:problem=kreska pseudotaktowa	!
4G/	-ti-	.	.	4c\	-ti-
!	!	!	!	!LO:LB:g=original	!
=9	=9	=9	=9	=9	=9
!	!	!LO:TX:t=P:problem=kreska pseudotaktowa	!	!	!
2A/	-as	1C	.	2c\	-as
1c	De-	.	.	1e	De-
!	!	!LO:TX:t=P:problem=kreska pseudotaktowa	!	!	!
.	.	1F	gra-	.	.
1B-\	.	.	.	1d\	.
=10-	=10	=10	=10	=10-	=10
!	!	!LO:TX:t=P:problem=kreska pseudotaktowa	!	!	!
.	.	1E	.	.	.
!	!	!	!	!LO:TX:t=P:problem=kreska pseudotaktowa	!
1A	-o	.	.	2c#X\	-o
!	!	!LO:TX:t=P:problem=kreska pseudotaktowa	!	!	!
.	.	1D	.	4f\	gra-
.	.	.	.	4e\	.
!LO:TX:t=P:problem=kreska pseudotaktowa	!	!	!	!LO:TX:t=P:problem=kreska pseudotaktowa	!
2B-\	.	.	.	2d\	.
=11	=11	=11	=11	=11	=11
2.G/	gra-	2.E/	.	2.c\	.
!	!	!LO:TX:t=P:problem=kreska pseudotaktowa	!	!LO:TX:t=P:problem=kreska pseudotaktowa	!
4G/	-ti-	4E/	-ti-	4c\	-ti-
!LO:N:vis=0	!	!LO:N:vis=0	!	!LO:N:vis=0	!
1A;	-as.	1F;	-as.	1c;	-as.
==	==	==	==	==	==
*-	*-	*-	*-	*-	*-
!!!system-decoration: [(s1,s2,s3)]
!!!ENC: Kamil Watkowski
!!!END: 2021-08-04
!!!YEC: Copyright 2022 Narodowy Instytut Fryderyka Chopina (https://polishscores.org)
!!!YEM: License CC-BY-4.0 (https://creativecommons.org/licenses/by/4.0)
